src/16/actions/forward.svg

<svg xmlns="http://www.w3.org/2000/svg" width="16" height="16" viewBox="0 0 16 16">
 <defs>
  <style id="current-color-scheme" type="text/css">
   .ColorScheme-Text { color:#565656; } .ColorScheme-Highlight { color:#5294e2; }
  </style>
 </defs>
 <path style="fill:currentColor" class="ColorScheme-Text" d="M 9 1.5039062 L 9 4.0039062 L 6.5 4.0039062 C 3.5 4.0039062 1.5 6.1304062 1.5 9.2539062 C 1.5 12.503906 5.5 14.003906 5.5 14.003906 C 5.5 14.003906 3.6249 11.351406 4.0625 10.003906 C 4.4284 8.8773063 5.6351 8.0039062 7 8.0039062 L 9 8.0039062 L 9 10.503906 L 15.46875 6.0039062 L 9 1.5039062 z"/>
</svg>

<svg xmlns="http://www.w3.org/2000/svg" width="16" height="16"><defs><style id="current-color-scheme" type="text/css"></style></defs><path d="M9 1.504v2.5H6.5c-3 0-5 2.126-5 5.25 0 3.25 4 4.75 4 4.75s-1.875-2.653-1.438-4c.366-1.127 1.573-2 2.938-2h2v2.5l6.469-4.5L9 1.504z" fill="currentColor" color="#565656"/></svg>
